icons/mobile/24/svg/avatar-warning-circle-fill-24.svg

<!-- This Source Code Form is subject to the terms of the Mozilla Public
   - License, v. 2.0. If a copy of the MPL was not distributed with this
   - file, You can obtain one at http://mozilla.org/MPL/2.0/. -->
<svg width="24" height="24" viewBox="0 0 24 24" fill="none" xmlns="http://www.w3.org/2000/svg">
    <path fill-rule="evenodd" clip-rule="evenodd" d="M11 18.75C11.28 18.75 11.553 18.726 11.825 18.696L11.648 19.004C11.296 19.621 11.199 20.314 11.312 20.984C11.2669 20.9853 11.2219 20.9885 11.177 20.9917C11.1182 20.9958 11.0594 21 11 21C5.477 21 1 16.523 1 11C1 5.477 5.477 1 11 1C16.523 1 21 5.477 21 11C21 11.388 20.973 11.77 20.93 12.146L20.852 12.01C20.311 11.065 19.338 10.5 18.25 10.5C17.162 10.5 16.189 11.064 15.648 12.01L14.51 14H7.25C6.137 14 5.204 14.733 4.881 15.738C6.3 17.567 8.512 18.75 11 18.75ZM8.10295 9.799C7.58595 7.798 9.08295 6 10.9999 6C12.6569 6 14 7.343 14 9C14 10.917 12.202 12.414 10.2009 11.897C9.18995 11.636 8.36395 10.809 8.10295 9.799Z" fill="black" />
    <path fill-rule="evenodd" clip-rule="evenodd" d="M19.5499 12.755L23.5489 19.749C24.1219 20.751 23.4009 22 22.2499 22H14.2509C13.0989 22 12.3779 20.751 12.9519 19.749L16.9509 12.755C17.5259 11.748 18.9739 11.748 19.5499 12.755ZM19 15H17.5V17.75H19V15ZM19 19H17.5V20.5H19V19Z" fill="black" />
</svg>

<!-- This Source Code Form is subject to the terms of the Mozilla Public
   - License, v. 2.0. If a copy of the MPL was not distributed with this
   - file, You can obtain one at http://mozilla.org/MPL/2.0/. -->
<svg xmlns="http://www.w3.org/2000/svg" width="24" height="24" fill="none" viewBox="0 0 24 24">
    <path fill="#000" fill-rule="evenodd" d="M11 18.75c.28 0 .553-.024.825-.054l-.177.308a2.96 2.96 0 0 0-.336 1.98q-.067.002-.135.008-.088.007-.177.008C5.477 21 1 16.523 1 11S5.477 1 11 1s10 4.477 10 10c0 .388-.027.77-.07 1.146l-.078-.136a2.97 2.97 0 0 0-2.602-1.51 2.97 2.97 0 0 0-2.602 1.51L14.51 14H7.25a2.49 2.49 0 0 0-2.369 1.738A7.73 7.73 0 0 0 11 18.75M8.103 9.799A3.006 3.006 0 0 1 11 6a3 3 0 0 1 3 3 3.006 3.006 0 0 1-3.8 2.897 2.97 2.97 0 0 1-2.097-2.098" clip-rule="evenodd" />
    <path fill="#000" fill-rule="evenodd" d="m19.55 12.755 3.999 6.994c.573 1.002-.148 2.251-1.3 2.251h-7.998c-1.152 0-1.873-1.249-1.3-2.251l4-6.994a1.496 1.496 0 0 1 2.599 0M19 15h-1.5v2.75H19zm0 4h-1.5v1.5H19z" clip-rule="evenodd" />
</svg>
